src/lib/packages/icons/src/assets/line/message-text-check.svg

<svg width="24" height="24" viewBox="0 0 24 24" fill="none" xmlns="http://www.w3.org/2000/svg">
<path d="M21.75 6V11C21.75 11.414 21.414 11.75 21 11.75C20.586 11.75 20.25 11.414 20.25 11V6C20.25 4.423 19.577 3.75 18 3.75H6C4.423 3.75 3.75 4.423 3.75 6V19.189L5.46997 17.469C5.61097 17.328 5.801 17.249 6 17.249H12C12.414 17.249 12.75 17.585 12.75 17.999C12.75 18.413 12.414 18.749 12 18.749H6.31104L3.53101 21.5291C3.38701 21.6731 3.19598 21.749 3.00098 21.749C2.90398 21.749 2.80711 21.73 2.71411 21.692C2.43411 21.576 2.25098 21.302 2.25098 20.999V5.99902C2.25098 3.58102 3.58298 2.24902 6.00098 2.24902H18.001C20.418 2.25002 21.75 3.582 21.75 6ZM20.47 14.136L17.667 16.939L16.53 15.803C16.237 15.51 15.762 15.51 15.469 15.803C15.176 16.096 15.176 16.571 15.469 16.864L17.136 18.531C17.282 18.677 17.474 18.751 17.666 18.751C17.858 18.751 18.05 18.678 18.196 18.531L21.5291 15.198C21.8221 14.905 21.8221 14.43 21.5291 14.137C21.2361 13.844 20.763 13.843 20.47 14.136ZM8 9.25H16C16.414 9.25 16.75 8.914 16.75 8.5C16.75 8.086 16.414 7.75 16 7.75H8C7.586 7.75 7.25 8.086 7.25 8.5C7.25 8.914 7.586 9.25 8 9.25ZM13 11.75H8C7.586 11.75 7.25 12.086 7.25 12.5C7.25 12.914 7.586 13.25 8 13.25H13C13.414 13.25 13.75 12.914 13.75 12.5C13.75 12.086 13.414 11.75 13 11.75Z" fill="currentColor"/>
</svg>

<svg xmlns="http://www.w3.org/2000/svg" width="24" height="24" fill="none"><path fill="currentColor" d="M21.75 6v5a.75.75 0 0 1-1.5 0V6c0-1.577-.673-2.25-2.25-2.25H6c-1.577 0-2.25.673-2.25 2.25v13.189l1.72-1.72a.749.749 0 0 1 .53-.22h6a.75.75 0 0 1 0 1.5H6.311l-2.78 2.78a.748.748 0 0 1-1.28-.53v-15c0-2.418 1.332-3.75 3.75-3.75h12C20.418 2.25 21.75 3.582 21.75 6Zm-1.28 8.136-2.803 2.803-1.137-1.136a.75.75 0 1 0-1.061 1.061l1.667 1.667a.748.748 0 0 0 1.06 0l3.333-3.333a.75.75 0 0 0-1.059-1.062ZM8 9.25h8a.75.75 0 0 0 0-1.5H8a.75.75 0 0 0 0 1.5Zm5 2.5H8a.75.75 0 0 0 0 1.5h5a.75.75 0 0 0 0-1.5Z"/></svg>
